svgs/sharp-solid/fire-burner.svg

<svg xmlns="http://www.w3.org/2000/svg" viewBox="0 0 640 512"><!--! Font Awesome Pro 6.6.0 by @fontawesome - https://fontawesome.com License - https://fontawesome.com/license (Commercial License) Copyright 2024 Fonticons, Inc. --><path d="M288 0l64 64 32-32c76.8 64 96 133.3 96 160c0 88.4-71.6 160-160 160s-160-71.6-160-160c0-89.6 85.3-165.3 128-192zm96 240.2c0-48-64-96-64-96s-64 48-64 96c0 35.3 28.7 64 64 64s64-28.7 64-64zM32 256l32 0 32 0 32 0 0 64-32 0 0 64 448 0 0-64-32 0 0-64 32 0 32 0 32 0 0 32 0 96 32 0 0 128L0 512 0 384l32 0 0-96 0-32zM320 480a32 32 0 1 0 0-64 32 32 0 1 0 0 64zm160-32a32 32 0 1 0 -64 0 32 32 0 1 0 64 0zM192 480a32 32 0 1 0 0-64 32 32 0 1 0 0 64z"/></svg>

<svg xmlns="http://www.w3.org/2000/svg" viewBox="0 0 640 512"><!--! Font Awesome Pro 6.4.0 by @fontawesome - https://fontawesome.com License - https://fontawesome.com/license (Commercial License) Copyright 2023 Fonticons, Inc. --><path d="M353 64.1c17.2-19.5 31-32 31-32s96 86.4 96 160c0 88.4-71.6 160-160 160s-160-71.6-160-160s128-192 128-192s32.6 26.4 65 64zM370 273c30-21 38-63 20-96c-2-4-4-8-7-12l-36 42s-58-74-62-79c-30 37-45 58-45 82c0 49 36 78 81 78c18 0 34-5 49-15zM32 256H64 96h32v64H96v64H544V320H512V256h32 32 32v32 96h32V512H0V384H32V288 256zM320 480a32 32 0 1 0 0-64 32 32 0 1 0 0 64zm160-32a32 32 0 1 0 -64 0 32 32 0 1 0 64 0zM192 480a32 32 0 1 0 0-64 32 32 0 1 0 0 64z"/></svg>
